X:1
T:In dulci jubilo
T:In dulci jubilo
T:Weinachtsliederbuch des Cornelius Freundt
T:Johann Walter
C:Johann Walter
%%score [ 1 2 3 4 ]
L:1/8
M:6/4
K:F
V:1 treble nm="Soprano"
V:2 treble nm="Alto"
V:3 treble-8 nm="Tenor"
V:4 bass nm="Bass"
V:1
 F2 | A4 B2 c2 d3 c | c4 =B2 c4 c2 | A4 _B2 c2 d3 c | c4 =B2 c6 | A4 A2 A4 G2 | A6 A3 G F2 | %7
w: 1.In|dul- ci ju- * bi-|lo _ _ nun|sin- get und _ seid|froh! _ _|Un- sers Her- zens|Won- ne _ leit|
w: 2.O|Je- su par- * vu-|le, _ _ nach|dir ist mir _ so|weh, _ _|tröst mir mein Ge-|mü- te, _ o|
w: 3.U-|bi sunt gau- * di-|a? _ _ ,|Nir- gent mehr _ denn|da, _ _|da die En- gel|sin- gen _ _|
 E4 E2 F4 E2 | F2 A2 B2 c4 c2 | A4 A2 A4 G2 | A6 A3 G F2 | E4 E2 F4 E2 | F2 A2 B2 c6 | %13
w: in prae- se- pi-|o _ _ _ und|leuch- tet als die|Son- ne _ ma-|tris in gre- mi-|o. _ _ _|
w: pu- er o- pti-|me, _ _ _ durch|al- le dei- ne|Gü- te, _ o|prin- ceps glo- ri-|ae. _ _ _|
w: no- va can- ti-|ca _ _ _ .|und die Schel- len|klin- gen _ in|re- gis cu- ri-|a. _ _ _|
 F4 F2 G4 G2 | A4 F2 G6 | A3 G F2 E2 D2 E2 | F6- F4 |] %17
w: Al- pha es et|O, _ _|Al- * pha es _ et|O. _|
w: Tra- he me post|te, _ _|tra- * he me _ post|te. _|
w: Ei- a, wär'n wir|da, _ _|ei- * a, wär'n _ wir|da. _|
V:2
 F2 | F4 F2 F4 D2 | F2 G4 E4 E2 | F4 F2 F4 D2 | F2 G4 E6 | F4 F2 F4 D2 | D6 D2 A,2 B,2 | %7
w: 1.In|dul- ci ju- bi-|lo _ _ nun|sin- get und seid|froh! _ _|Un- sers Her- zens|Won- ne _ leit|
w: 2.O|Je- su par- vu-|le, _ _ nach|dir ist mir so|weh, _ _|tröst mir mein Ge-|mü- te, _ o|
w: 3.U-|bi sunt gau- di-|a? _ _ ,|Nir- gent mehr denn|da, _ _|da die En- gel|sin- gen _ _|
 C4 C2 C4 C2 | A,2 D4 C4 C2 | F4 F2 F4 D2 | D6 D2 A,2 B,2 | C4 C2 C4 C2 | A,2 D4 C6 | %13
w: in prae- se- pi-|o _ _ und|leuch- tet als die|Son- ne _ ma-|tris in gre- mi-|o. _ _|
w: pu- er o- pti-|me, _ _ durch|al- le dei- ne|Gü- te, _ o|prin- ceps glo- ri-|ae. _ _|
w: no- va can- ti-|ca _ _ .|und die Schel- len|klin- gen _ in|re- gis cu- ri-|a. _ _|
 D4 D2 B,4 B,2 | A,2 C2 D2 E3 F G2 | F4 C2 C2 D2 C2 | C6- C4 |] %17
w: Al- pha es et|O, _ _ _ _ _|Al- pha es _ et|O. _|
w: Tra- he me post|te, _ _ _ _ _|tra- he me _ post|te. _|
w: Ei- a, wär'n wir|da, _ _ _ _ _|ei- a, wär'n _ wir|da. _|
V:3
 F2 | F4 F2 A4 B2 | c2 d4 c4 c2 | F4 F2 A4 B2 | c2 d4 c6 | c4 d2 c4 B2 | A6 F4 F2 | G4 G2 A4 G2 | %8
w: 1.In|dul- ci ju- bi-|lo _ _ nun|sin- get und seid|froh! _ _|Un- sers Her- zens|Won- ne leit|in prae- se- pi-|
w: 2.O|Je- su par- vu-|le, _ _ nach|dir ist mir so|weh, _ _|tröst mir mein Ge-|mü- te, o|pu- er o- pti-|
w: 3.U-|bi sunt gau- di-|a? _ _ ,|Nir- gent mehr denn|da, _ _|da die En- gel|sin- gen _|no- va can- ti-|
 F4 G2 A4 A2 | c4 d2 c4 B2 | A6 F4 F2 | G4 G2 A4 G2 | F4 G2 A6 | D4 D2 E4 E2 | F6 c6 | %15
w: o _ _ und|leuch- tet als die|Son- ne ma-|tris in gre- mi-|o. _ _|Al- pha es et|O, _|
w: me, _ _ durch|al- le dei- ne|Gü- te, o|prin- ceps glo- ri-|ae. _ _|Tra- he me post|te, _|
w: ca _ _ .|und die Schel- len|klin- gen in|re- gis cu- ri-|a. _ _|Ei- a, wär'n wir|da, _|
 A4 A2 G4 G2 | F6- F4 |] %17
w: Al- pha es et|O. _|
w: tra- he me post|te. _|
w: ei- a, wär'n wir|da. _|
V:4
 F,2 | F,4 B,,2 F,2 D,2 G,2 | A,2 G,4 C,4 C,2 | D,4 B,,2 F,2 D,2 G,2 | A,2 G,4 C,6 | %5
w: 1.In|dul- ci ju- * bi-|lo _ _ nun|sin- get und _ seid|froh! _ _|
w: 2.O|Je- su par- * vu-|le, _ _ nach|dir ist mir _ so|weh, _ _|
w: 3.U-|bi sunt gau- * di-|a? _ _ ,|Nir- gent mehr _ denn|da, _ _|
 F,4 D,2 F,4 G,2 | D,6 (D,4 D,2) | C,4 C,2 F,4 C,2 | D,4 B,,2 A,,4 A,2 | F,4 D,2 F,4 G,2 | %10
w: Un- sers Her- zens|Won- ne leit|in prae- se- pi-|o _ _ und|leuch- tet als die|
w: tröst mir mein Ge-|mü- te, o|pu- er o- pti-|me, _ _ durch|al- le dei- ne|
w: da die En- gel|sin- gen *|no- va can- ti-|ca _ _ .|und die Schel- len|
 D,6 D,4 D,2 | C,4 C,2 F,4 C,2 | D,4 B,,2 A,,6 | B,,4 B,,2 G,,4 G,,2 | F,,2 F,2 D,2 C,3 D, E,2 | %15
w: Son- ne ma-|tris in gre- mi-|o. _ _|Al- pha es et|O, _ _ _ _ _|
w: Gü- te, o|prin- ceps glo- ri-|ae. _ _|Tra- he me post|te, _ _ _ _ _|
w: klin- gen in|re- gis cu- ri-|a. _ _|Ei- a, wär'n wir|da, _ _ _ _ _|
 F,2 D,2 F,2 C,2 B,,2 C,2 | F,,6- F,,4 |] %17
w: Al- * pha es _ et|O. _|
w: tra- * he me _ post|te. _|
w: ei- * a, wär'n _ wir|da. _|

